X: 4720
T: Boys Of Ballinchalla, The
R: reel
M: 4/4
K: Gmajor
dc|BG~G2 BGdc|BG~G2 d2 cB|cA~A2 cAeA|cA~A2 e2 dc|
BG~G2 BGdc|BG~G2 d2 cB|cedc BGAF|DGGF G2||
BA|Gggf gedB|Gggf gedB|Aaa^g aecB|Aaa^g aecA|
Gggf gedB|Gg gf gfga|gfef gfeg|bgaf g2||

